src/lib/packages/icons/src/assets/line/bone-break.svg

<svg width="24" height="24" viewBox="0 0 24 24" fill="none" xmlns="http://www.w3.org/2000/svg">
<path d="M20.7061 15.4351C21.2651 16.4651 21.185 17.6631 20.484 18.5691C19.905 19.3221 19.0491 19.75 18.1291 19.75C18.1031 19.75 18.0761 19.75 18.0501 19.749C17.1121 19.724 16.236 19.2481 15.703 18.4751C15.492 18.1651 15.3351 17.7991 15.2491 17.4141C15.2051 17.1671 15.035 16.9981 14.819 16.9561L12 16.4141L9.18107 16.9561C8.96507 16.9981 8.79507 17.167 8.75907 17.377C8.66507 17.799 8.50801 18.1649 8.29801 18.4729C7.76501 19.2469 6.88809 19.723 5.95109 19.749C5.00709 19.778 4.11308 19.3441 3.51408 18.5681C2.81208 17.6601 2.73406 16.4581 3.29106 15.4351C2.67906 14.9261 2.30307 14.185 2.25407 13.365C2.19907 12.444 2.57505 11.5611 3.28605 10.9451C4.01005 10.3311 5.01207 10.1029 5.90507 10.3479C6.62707 10.5499 7.2151 10.9709 7.6121 11.5649C7.7571 11.7869 7.97904 11.897 8.19804 11.855L10.8371 11.269C11.2391 11.182 11.6411 11.4341 11.7321 11.8391C11.8221 12.2441 11.566 12.6439 11.162 12.7339L8.50102 13.324C7.66802 13.482 6.833 13.1141 6.361 12.3911C6.168 12.1011 5.879 11.8979 5.507 11.7939C5.092 11.6799 4.60408 11.794 4.26408 12.084C3.91008 12.392 3.72499 12.8181 3.75199 13.2771C3.77899 13.7241 4.00406 14.1231 4.36906 14.3711C4.91906 14.7561 5.05605 15.498 4.68205 16.031C4.32705 16.562 4.33009 17.1731 4.70109 17.6521C5.00909 18.0511 5.44705 18.249 5.91105 18.251C6.37005 18.238 6.8001 18.005 7.0601 17.626C7.1641 17.476 7.242 17.2889 7.288 17.0869C7.422 16.3019 8.07201 15.6441 8.89701 15.4851L11.8581 14.915C11.9521 14.896 12.047 14.896 12.141 14.915L15.1021 15.4851C15.9271 15.6441 16.578 16.302 16.719 17.123C16.757 17.288 16.835 17.475 16.94 17.627C17.2 18.004 17.629 18.238 18.089 18.25C18.561 18.249 18.9911 18.0501 19.2961 17.6531C19.6681 17.1721 19.672 16.562 19.308 16.019C18.944 15.498 19.08 14.755 19.621 14.377C19.995 14.123 20.22 13.7241 20.247 13.2771C20.274 12.8181 20.09 12.3919 19.729 12.0779C19.394 11.7939 18.9021 11.6809 18.4871 11.7949C18.1201 11.8979 17.8311 12.1009 17.6331 12.3979C17.1661 13.1149 16.3401 13.4829 15.5201 13.3279L12.8361 12.7329C12.4321 12.6429 12.176 12.2429 12.266 11.8379C12.356 11.4339 12.7551 11.1831 13.1611 11.2681L15.8221 11.8579C16.0171 11.8979 16.24 11.788 16.382 11.571C16.783 10.97 17.3711 10.5501 18.0881 10.3491C18.9911 10.1021 19.9881 10.33 20.7061 10.939C21.4231 11.561 21.7991 12.443 21.7441 13.365C21.6961 14.182 21.3221 14.9221 20.7061 15.4351ZM12 7.75C12.414 7.75 12.75 7.414 12.75 7V4C12.75 3.586 12.414 3.25 12 3.25C11.586 3.25 11.25 3.586 11.25 4V7C11.25 7.414 11.586 7.75 12 7.75ZM15 8.75C15.192 8.75 15.3841 8.67703 15.5301 8.53003L17.5301 6.53003C17.8231 6.23703 17.8231 5.76199 17.5301 5.46899C17.2371 5.17599 16.762 5.17599 16.469 5.46899L14.469 7.46899C14.176 7.76199 14.176 8.23703 14.469 8.53003C14.616 8.67703 14.808 8.75 15 8.75ZM8.47001 8.53003C8.61601 8.67603 8.80804 8.75 9.00004 8.75C9.19204 8.75 9.38407 8.67703 9.53007 8.53003C9.82307 8.23703 9.82307 7.76199 9.53007 7.46899L7.53007 5.46899C7.23707 5.17599 6.76203 5.17599 6.46903 5.46899C6.17603 5.76199 6.17603 6.23703 6.46903 6.53003L8.47001 8.53003Z" fill="currentColor"/>
</svg>

<svg xmlns="http://www.w3.org/2000/svg" width="24" height="24" fill="none"><path fill="currentColor" d="M20.706 15.435c.56 1.03.479 2.228-.222 3.134a2.955 2.955 0 0 1-2.355 1.181l-.079-.001a2.954 2.954 0 0 1-2.347-1.274 3.1 3.1 0 0 1-.454-1.06.544.544 0 0 0-.43-.459L12 16.414l-2.819.542a.527.527 0 0 0-.422.421 3.142 3.142 0 0 1-.461 1.096 2.958 2.958 0 0 1-2.347 1.276c-.944.029-1.838-.405-2.437-1.18-.702-.909-.78-2.11-.223-3.134a2.9 2.9 0 0 1-1.037-2.07 2.953 2.953 0 0 1 1.032-2.42 2.914 2.914 0 0 1 2.62-.597 2.98 2.98 0 0 1 1.706 1.217c.145.222.367.332.586.29l2.64-.586a.75.75 0 1 1 .325 1.465l-2.662.59c-.833.158-1.668-.21-2.14-.933a1.466 1.466 0 0 0-.854-.597 1.4 1.4 0 0 0-1.243.29 1.448 1.448 0 0 0-.512 1.193c.027.447.252.846.617 1.094.55.385.687 1.127.313 1.66-.355.531-.352 1.142.02 1.621.307.4.745.597 1.21.599a1.447 1.447 0 0 0 1.148-.625c.104-.15.182-.337.228-.54.134-.784.784-1.442 1.609-1.6l2.961-.571a.71.71 0 0 1 .283 0l2.961.57a2.033 2.033 0 0 1 1.617 1.638 1.446 1.446 0 0 0 1.37 1.127 1.49 1.49 0 0 0 1.207-.597c.372-.48.376-1.091.012-1.634-.364-.521-.228-1.264.313-1.642a1.42 1.42 0 0 0 .626-1.1 1.452 1.452 0 0 0-.518-1.2 1.409 1.409 0 0 0-1.242-.282 1.47 1.47 0 0 0-.854.603c-.467.717-1.293 1.085-2.113.93l-2.684-.595a.75.75 0 0 1 .325-1.465l2.661.59c.195.04.418-.07.56-.287.401-.601.99-1.02 1.706-1.222a2.906 2.906 0 0 1 2.618.59 2.959 2.959 0 0 1 1.038 2.426 2.896 2.896 0 0 1-1.038 2.07ZM12 7.75a.75.75 0 0 0 .75-.75V4a.75.75 0 0 0-1.5 0v3c0 .414.336.75.75.75Zm3 1a.744.744 0 0 0 .53-.22l2-2a.75.75 0 1 0-1.061-1.061l-2 2A.75.75 0 0 0 15 8.75Zm-6.53-.22a.748.748 0 0 0 1.06 0 .75.75 0 0 0 0-1.061l-2-2A.75.75 0 1 0 6.47 6.53l2.001 2Z"/></svg>
